X: 26886
T: Minnie Foster's
R: hornpipe
M: 4/4
K: Fmajor
|:A>B|c>FA>c d>FB>d|(3cdc A>c f>ef>a|g>be>g b>ga>f|(3gfa (3gfd c2 A>B|
c>FA>c d>FB>d|(3cdc A>c f>ef>a|g>cb>g e>ca>g|(3fgf e>g f2:|
|:e>f|g>ce>g b2 a>g|a>cf>g a2 g>f|g>c'=b>a g>fe>d|(3cdc =B>d c2 A,>=B,|
(3CDC A,>C F>Ac>A|d>d (3Bdf b2 (3bag|a>cf>a g>ce>g|(3fgf e>g f2:|

